tools/download-figma-icons/icons/solid/hanover-region.svg

<svg width="24" height="24" viewBox="0 0 24 24" fill="none" xmlns="http://www.w3.org/2000/svg">
<path fill-rule="evenodd" clip-rule="evenodd" d="M23.9205 13.9145L22.4775 11.0293L21.7441 5.1569C21.7171 4.9409 21.5971 4.74666 21.4156 4.62591L14.6657 0.126C14.4542 -0.0149969 14.1865 -0.0389965 13.9547 0.0607515L8.70483 2.31071C8.37859 2.45095 8.19484 2.7997 8.26459 3.14769L8.92157 6.43337L6.74962 8.06234L4.19967 6.14988C3.93343 5.94963 3.56668 5.94963 3.30044 6.14988L0.3005 8.39983C-0.0317433 8.64883 -0.098492 9.11832 0.150503 9.44981L2.24971 12.2495V16.4997C2.24971 16.7359 2.36146 16.9587 2.55045 17.0997L5.4079 19.2431L7.5791 23.5855C7.7066 23.839 7.96609 23.9995 8.24959 23.9995H11.9995C12.1705 23.9995 12.3355 23.9418 12.4683 23.836L16.2182 20.8361C16.5219 20.5923 16.5902 20.1573 16.3734 19.8341L15.4644 18.4691L20.4316 17.2272C20.5291 17.2032 20.6198 17.1597 20.6993 17.0997L23.6993 14.8497C23.9895 14.6322 24.0825 14.2392 23.9205 13.9145Z" fill="black"/>
</svg>

<svg xmlns="http://www.w3.org/2000/svg" width="24" height="24" fill="none" viewBox="0 0 24 24"><path fill="currentColor" fill-rule="evenodd" d="m23.92 13.915-1.443-2.886-.733-5.872a.75.75 0 0 0-.328-.531l-6.75-4.5a.75.75 0 0 0-.711-.065l-5.25 2.25a.75.75 0 0 0-.44.837l.657 3.285-2.172 1.63L4.2 6.15a.75.75 0 0 0-.9 0L.3 8.4a.75.75 0 0 0-.15 1.05l2.1 2.8v4.25a.75.75 0 0 0 .3.6l2.858 2.143 2.171 4.343a.75.75 0 0 0 .67.414H12a.75.75 0 0 0 .47-.164l3.75-3a.75.75 0 0 0 .154-1.002l-.909-1.365 4.968-1.242a.7.7 0 0 0 .267-.127l3-2.25a.75.75 0 0 0 .221-.935" clip-rule="evenodd"/></svg>
